assets/build/img/option-dynamic.svg

<svg width="14" height="13" viewBox="0 0 14 13" fill="none" xmlns="http://www.w3.org/2000/svg">
	<path d="M10.9695 12.7065C10.909 12.7065 10.8788 12.7065 10.8183 12.6771L7.00838 10.7403L3.19845 12.6771C3.16821 12.7065 3.10774 12.7065 3.04726 12.7065C2.98679 12.7065 2.92631 12.6771 2.86583 12.6478C2.77512 12.5891 2.71465 12.4717 2.74488 12.3543L3.47059 8.21663L0.386354 5.28209C0.295641 5.19406 0.265403 5.07668 0.295641 4.98864C0.325878 4.87126 0.416591 4.81257 0.537541 4.78322L4.83128 4.19632L6.73624 0.440108C6.76648 0.352071 6.88743 0.293381 7.00838 0.293381C7.12933 0.293381 7.22005 0.352071 7.28052 0.469453L9.18549 4.22566L13.449 4.84191C13.5699 4.87126 13.6606 4.92995 13.6909 5.04733C13.7211 5.16471 13.6909 5.28209 13.6002 5.34079L10.5159 8.27532L11.2416 12.413C11.2719 12.5304 11.2114 12.6478 11.1207 12.7065C11.0905 12.6771 11.03 12.7065 10.9695 12.7065Z" fill="#333333"/>
	<path d="M7.00805 0.586907L8.9735 4.48984L13.3882 5.10609L10.2132 8.12867L10.9692 12.4131L7.00805 10.3883L3.04693 12.4131L3.80287 8.12867L0.597688 5.10609L5.01237 4.48984L7.00805 0.586907ZM7.00805 0C6.76615 0 6.55449 0.117381 6.46378 0.322799L4.61929 3.93228L0.506976 4.51919C0.295312 4.54853 0.0836494 4.69526 0.0231743 4.93002C-0.0373009 5.13544 0.0231743 5.3702 0.174362 5.54628L3.13764 8.36343L2.44218 12.2957C2.41194 12.5305 2.50266 12.7359 2.68408 12.8826C2.77479 12.9707 2.92598 13 3.04693 13C3.13764 13 3.22836 12.9707 3.31907 12.9413L7.00805 11.0632L10.6668 12.912C10.7575 12.9707 10.8482 12.9707 10.9389 12.9707C11.0599 12.9707 11.1808 12.9413 11.3018 12.8533C11.4832 12.7359 11.5739 12.5011 11.5437 12.2664L10.8482 8.30474L13.8115 5.48759C13.9627 5.34086 14.0232 5.10609 13.9627 4.87133C13.9022 4.66591 13.6906 4.48984 13.4789 4.4605L9.36659 3.87359L7.55233 0.322799C7.43138 0.117381 7.21972 0 7.00805 0Z" fill="#333333"/>
</svg>

<svg width="14" height="13" fill="none" xmlns="http://www.w3.org/2000/svg"><path d="M10.97 12.707c-.061 0-.091 0-.152-.03l-3.81-1.937-3.81 1.937c-.03.03-.09.03-.15.03a.43.43 0 01-.182-.06.275.275 0 01-.121-.293l.726-4.137L.386 5.282c-.09-.088-.12-.205-.09-.293.03-.118.12-.176.242-.206l4.293-.587L6.736.44c.03-.088.151-.147.272-.147.121 0 .212.06.273.176l1.904 3.757 4.264.616c.12.03.212.088.242.205.03.118 0 .235-.09.294l-3.085 2.934.726 4.138a.275.275 0 01-.121.293c-.03-.029-.091 0-.152 0z" fill="#333"/><path d="M7.008.587L8.973 4.49l4.415.616-3.175 3.023.756 4.284-3.96-2.025-3.962 2.025.756-4.284L.598 5.106l4.414-.616L7.008.587zm0-.587c-.242 0-.454.117-.544.323l-1.845 3.61-4.112.586a.575.575 0 00-.484.411.67.67 0 00.151.616l2.964 2.817-.696 3.933c-.03.235.06.44.242.587.09.088.242.117.363.117.09 0 .181-.03.272-.059l3.689-1.878 3.659 1.849c.09.059.181.059.272.059.12 0 .242-.03.363-.118.181-.117.272-.352.242-.587l-.696-3.961 2.963-2.817c.152-.147.212-.382.152-.617a.622.622 0 00-.484-.41l-4.112-.587L7.552.323A.64.64 0 007.008 0z" fill="#333"/></svg>
